data/styles/clear/style-clear/symbols/car-part-m.svg

<svg height="24" viewBox="0 0 24 24" width="24"><g fill="none" fill-rule="evenodd"><circle cx="12" cy="12" fill="#fff" opacity=".6" r="12"/><circle cx="12" cy="12" fill="#717065" r="11"/><path d="m7.8 6c-.9872727 0-1.8.75252528-1.8 1.66666667v2.22222222 1.66666671c0 .3333333.24.5555555.6.5555555h.6c0-.6111111.54-1.1111111 1.2-1.1111111s1.2.5 1.2 1.1111111h4.8c0-.6111111.54-1.1111111 1.2-1.1111111s1.2.5 1.2 1.1111111h.6c.36 0 .6-.2222222.6-.5555555v-1.4409723c0-.44444441-.36375-.89236108-.84375-1.05902774l-1.55625-.60763889-1.575-1.78819445c-.00306-.00354444-.01566.00352222-.01875 0-.3495666-.39847494-.851157-.65972222-1.40625-.65972222zm0 1.11111111h4.8c.1600002 0 .3572028.09224833.4875.24305556l.76875.86805555h-6.65625v-.55555555c0-.30808084.2672727-.55555556.6-.55555556zm.6 6.55555559c-.98700594 0-1.8.7527727-1.8 1.6666666s.81299406 1.6666667 1.8 1.6666667c.77521092 0 1.43656932-.4690306 1.6875-1.1111111h.88125c.2076258.3316089.5874876.5555555 1.03125.5555555s.8236242-.2239466 1.03125-.5555555h.88125c.2509308.6420805.9122892 1.1111111 1.6875 1.1111111.987006 0 1.8-.7527722 1.8-1.6666667 0-.9138944-.812994-1.6666666-1.8-1.6666666-.7752108 0-1.4365692.4690305-1.6875 1.1111111h-.88125c-.2076258-.3316089-.5874876-.5555556-1.03125-.5555556s-.8236242.2239467-1.03125.5555556h-.88125c-.25093068-.6420806-.91228908-1.1111111-1.6875-1.1111111zm0 1.1111111c.33847746 0 .6.2421505.6.5555555s-.26152254.5555556-.6.5555556-.6-.2421506-.6-.5555556.26152254-.5555555.6-.5555555zm7.2 0c.3384768 0 .6.2421511.6.5555555 0 .3134045-.2615232.5555556-.6.5555556s-.6-.2421511-.6-.5555556c0-.3134044.2615232-.5555555.6-.5555555z" fill="#fff" fill-rule="nonzero"/></g></svg>

<svg width="24" height="24" viewBox="0 0 24 24">
  <g fill="none" fill-rule="evenodd">
    <circle cx="12" cy="12" r="12" fill="#FFF" opacity=".6"/>
    <circle cx="12" cy="12" r="11" fill="#717065"/>
    <path fill="#FFF" fill-rule="nonzero" d="M7.8,6 C6.8127273,6 6,6.75252528 6,7.66666667 L6,9.88888889 L6,11.5555556 C6,11.8888889 6.24,12.1111111 6.6,12.1111111 L7.2,12.1111111 C7.2,11.5 7.74,11 8.4,11 C9.06,11 9.6,11.5 9.6,12.1111111 L14.4,12.1111111 C14.4,11.5 14.94,11 15.6,11 C16.26,11 16.8,11.5 16.8,12.1111111 L17.4,12.1111111 C17.76,12.1111111 18,11.8888889 18,11.5555556 L18,10.1145833 C18,9.67013889 17.63625,9.22222222 17.15625,9.05555556 L15.6,8.44791667 L14.025,6.65972222 C14.02194,6.65617778 14.00934,6.66324444 14.00625,6.65972222 C13.6566834,6.26124728 13.155093,6 12.6,6 L7.8,6 Z M7.8,7.11111111 L12.6,7.11111111 C12.7600002,7.11111111 12.9572028,7.20335944 13.0875,7.35416667 L13.85625,8.22222222 L7.2,8.22222222 L7.2,7.66666667 C7.2,7.35858583 7.4672727,7.11111111 7.8,7.11111111 Z M8.4,13.6666667 C7.41299406,13.6666667 6.6,14.4194394 6.6,15.3333333 C6.6,16.2472272 7.41299406,17 8.4,17 C9.17521092,17 9.83656932,16.5309694 10.0875,15.8888889 L10.96875,15.8888889 C11.1763758,16.2204978 11.5562376,16.4444444 12,16.4444444 C12.4437624,16.4444444 12.8236242,16.2204978 13.03125,15.8888889 L13.9125,15.8888889 C14.1634308,16.5309694 14.8247892,17 15.6,17 C16.587006,17 17.4,16.2472278 17.4,15.3333333 C17.4,14.4194389 16.587006,13.6666667 15.6,13.6666667 C14.8247892,13.6666667 14.1634308,14.1356972 13.9125,14.7777778 L13.03125,14.7777778 C12.8236242,14.4461689 12.4437624,14.2222222 12,14.2222222 C11.5562376,14.2222222 11.1763758,14.4461689 10.96875,14.7777778 L10.0875,14.7777778 C9.83656932,14.1356972 9.17521092,13.6666667 8.4,13.6666667 Z M8.4,14.7777778 C8.73847746,14.7777778 9,15.0199283 9,15.3333333 C9,15.6467383 8.73847746,15.8888889 8.4,15.8888889 C8.06152254,15.8888889 7.8,15.6467383 7.8,15.3333333 C7.8,15.0199283 8.06152254,14.7777778 8.4,14.7777778 Z M15.6,14.7777778 C15.9384768,14.7777778 16.2,15.0199289 16.2,15.3333333 C16.2,15.6467378 15.9384768,15.8888889 15.6,15.8888889 C15.2615232,15.8888889 15,15.6467378 15,15.3333333 C15,15.0199289 15.2615232,14.7777778 15.6,14.7777778 Z"/>
  </g>
</svg>
